X:94
T:The North Country Festival '81
C:Terence "Cuz" Teahan
B:Terry "Cuz" Teahan "Sliabh Luachra on Parade" 1980
Z:Patrick Cavanagh
M:2/4
L:1/8
R:Polka
K:G
| D>E GA | Bd BA | B/c/d BA | GE EG/E/ | 
D>E GA | Bd Be | B/c/d eg | bg ed :| 
| dB BA | GE EG | B/c/d eg | bg gb | 
a>g ed | eG GB | A>G ED | EG G2 :|| 

